X: 39
T:Nail That Catfish to the Tree
R:reel
S:Greg Dahms
Z:Alf.
M:2/4
L:1/16
K:G
D2|: G2B2 A2B2| c2c2 B2B2| ABAG FED2| ABAG FED2|
G2B2 A2B2| c2c2 B2B2| ABAG DEF2| G4 G2D2:|
:C2C2 E2G2| c2c2 B2B2| ABAG FED2| ABAG FEDB,|
C2C2 E2G2| c2c2 B2B2| ABAG DEF2| G4 G4:|
